; generated by Slic3r 1.3.0 on 2023-08-16 at 10:40:55



; external perimeters extrusion width = 0.55mm (4.37mm^3/s)

; perimeters extrusion width = 0.70mm (11.44mm^3/s)

; infill extrusion width = 0.62mm (13.45mm^3/s)

; solid infill extrusion width = 0.70mm (3.81mm^3/s)

; top infill extrusion width = 0.70mm (2.86mm^3/s)



M107

M104 S200 ; set temperature

G28 ; home all axes

G0 X156.405 Y8.391 Z60.204 A170.0 B0.0 C0.0 E0.0 F5000.0


; Filament gcode



M109 S200 ; set temperature and wait for it to be reached

G21 ; set units to millimeters

G90 ; use absolute coordinates

M82 ; use absolute distances for extrusion

G92 E0

G0 X155.745 Y8.104 Z61.151 A170.0 B0.0 C0.0 E0.0 F7800.0
G0 X155.745 Y8.104 Z61.151 A170.0 B0.0 C0.0 E-2.0 F2400.0
G92 E0

G0 X152.987 Y8.371 Z151.071 A4.32 B-21.195 C0.0 E-2.0 F7800.0
G0 X152.987 Y8.371 Z151.071 A4.32 B-21.195 C0.0 E2.0 F2400.0
G0 X152.987 Y8.371 Z151.071 A4.32 B-21.195 C0.0 E2.0 F600.0
G0 X153.639 Y8.306 Z150.024 A5.742 B-22.579 C0.0 E2.07096 F600.0
G0 X153.907 Y8.279 Z149.152 A7.454 B-24.432 C0.0 E2.14192 F600.0
G0 X153.879 Y8.282 Z148.809 A8.365 B-25.479 C0.0 E2.17858 F600.0
G0 X153.641 Y8.305 Z148.057 A10.569 B-28.005 C0.0 E2.26861 F600.0
G0 X153.228 Y8.347 Z147.634 A12.194 B-29.932 C0.0 E2.33957 F600.0
G0 X152.466 Y8.424 Z147.61 A13.456 B-31.697 C0.0 E2.41053 F600.0
G0 X151.475 Y8.528 Z147.983 A14.201 B-33.143 C0.0 E2.48149 F600.0
G0 X150.396 Y8.644 Z148.696 A14.37 B-34.163 C0.0 E2.55246 F600.0
G0 X149.851 Y8.705 Z149.166 A14.238 B-34.496 C0.0 E2.58911 F600.0
G0 X149.734 Y8.718 Z149.275 A14.194 B-34.555 C0.0 E2.59722 F600.0
G0 X148.772 Y8.827 Z150.309 A13.562 B-34.796 C0.0 E2.66819 F600.0
G0 X148.015 Y8.916 Z151.405 A12.52 B-34.461 C0.0 E2.73915 F600.0
G0 X147.531 Y8.974 Z152.439 A11.196 B-33.542 C0.0 E2.81011 F600.0
G0 X147.359 Y8.995 Z153.296 A9.726 B-32.079 C0.0 E2.88107 F600.0
G0 X147.397 Y8.99 Z153.636 A8.959 B-31.153 C0.0 E2.91772 F600.0
G0 X147.577 Y8.969 Z154.357 A7.082 B-28.683 C0.0 E3.00776 F600.0
G0 X147.864 Y8.934 Z154.747 A5.64 B-26.542 C0.0 E3.07872 F600.0
G0 X148.453 Y8.865 Z154.771 A4.395 B-24.357 C0.0 E3.14968 F600.0
G0 X149.295 Y8.767 Z154.423 A3.48 B-22.446 C0.0 E3.22064 F600.0
G0 X150.311 Y8.654 Z153.745 A3.017 B-21.103 C0.0 E3.29161 F600.0
G0 X150.868 Y8.593 Z153.293 A2.986 B-20.704 C0.0 E3.32826 F600.0
G0 X150.991 Y8.579 Z153.186 A2.996 B-20.641 C0.0 E3.33637 F600.0
G0 X152.059 Y8.466 Z152.168 A3.373 B-20.505 C0.0 E3.40734 F600.0
G0 X152.957 Y8.374 Z151.107 A4.288 B-21.172 C0.0 E3.47598 F600.0
G0 X152.957 Y8.374 Z151.107 A4.288 B-21.172 C0.0 E1.47598 F2400.0
G92 E0

G0 X150.432 Y8.64 Z150.972 A9.698 B-29.418 C0.0 E1.47598 F7800.0
G0 X150.432 Y8.64 Z150.972 A9.698 B-29.418 C0.0 E2.0 F2400.0
G0 X150.432 Y8.64 Z150.972 A9.698 B-29.418 C0.0 E2.0 F1800.0
G0 X150.639 Y8.618 Z151.705 A7.671 B-26.924 C0.0 E2.02697 F1800.0
G0 X150.692 Y8.635 Z151.642 A7.671 B-26.865 C0.0 E2.02697 F7800.0
G0 X150.486 Y8.657 Z150.91 A9.698 B-29.355 C0.0 E2.02697 F7800.0
G0 X150.486 Y8.657 Z150.91 A9.698 B-29.355 C0.0 E2.02697 F600.0
G0 X150.692 Y8.635 Z151.642 A7.671 B-26.865 C0.0 E2.05141 F600.0
G0 X150.745 Y8.652 Z151.579 A7.671 B-26.806 C0.0 E2.05141 F7800.0
G0 X150.539 Y8.675 Z150.848 A9.698 B-29.293 C0.0 E2.05141 F7800.0
G0 X150.539 Y8.675 Z150.848 A9.698 B-29.293 C0.0 E2.05141 F600.0
G0 X150.745 Y8.652 Z151.579 A7.671 B-26.806 C0.0 E2.07586 F600.0
M106 S255

G0 X150.798 Y8.67 Z151.516 A7.671 B-26.748 C0.0 E2.07586 F7800.0
G0 X150.592 Y8.692 Z150.787 A9.698 B-29.232 C0.0 E2.07586 F7800.0
G0 X150.592 Y8.692 Z150.787 A9.698 B-29.232 C0.0 E2.07586 F600.0
G0 X150.798 Y8.67 Z151.516 A7.671 B-26.748 C0.0 E2.1003 F600.0
G0 X150.85 Y8.687 Z151.454 A7.671 B-26.69 C0.0 E2.1003 F7800.0
G0 X150.645 Y8.709 Z150.726 A9.698 B-29.17 C0.0 E2.1003 F7800.0
G0 X150.645 Y8.709 Z150.726 A9.698 B-29.17 C0.0 E2.1003 F600.0
G0 X150.85 Y8.687 Z151.454 A7.671 B-26.69 C0.0 E2.12474 F600.0
G0 X150.903 Y8.704 Z151.392 A7.671 B-26.633 C0.0 E2.12474 F7800.0
G0 X150.698 Y8.727 Z150.665 A9.698 B-29.11 C0.0 E2.12474 F7800.0
G0 X150.698 Y8.727 Z150.665 A9.698 B-29.11 C0.0 E2.12474 F600.0
G0 X150.903 Y8.704 Z151.392 A7.671 B-26.633 C0.0 E2.14919 F600.0
G0 X150.955 Y8.722 Z151.33 A7.671 B-26.576 C0.0 E2.14919 F7800.0
G0 X150.75 Y8.744 Z150.604 A9.698 B-29.05 C0.0 E2.14919 F7800.0
G0 X150.75 Y8.744 Z150.604 A9.698 B-29.05 C0.0 E2.14919 F600.0
G0 X150.955 Y8.722 Z151.33 A7.671 B-26.576 C0.0 E2.17363 F600.0
G0 X151.006 Y8.739 Z151.268 A7.671 B-26.519 C0.0 E2.17363 F7800.0
G0 X151.006 Y8.739 Z151.268 A7.671 B-26.519 C0.0 E0.17363 F2400.0
G92 E0

G0 X150.802 Y8.761 Z150.543 A9.698 B-28.99 C0.0 E0.17363 F7800.0
G0 X150.802 Y8.761 Z150.543 A9.698 B-28.99 C0.0 E2.0 F2400.0
G0 X150.802 Y8.761 Z150.543 A9.698 B-28.99 C0.0 E2.0 F600.0
G0 X151.006 Y8.739 Z151.268 A7.671 B-26.519 C0.0 E2.02444 F600.0
G0 X151.006 Y8.739 Z151.268 A7.671 B-26.519 C0.0 E0.02444 F2400.0
G92 E0

M107

; Filament-specific end gcode 

;END gcode for filament



M104 S0 ; turn off temperature

G28 X0  ; home X axis

M84     ; disable motors



M140 S0 ; set bed temperature

; filament used = 1.7mm (0.0cm3)

; total filament cost = 0.0



; avoid_crossing_perimeters = 0

; bed_shape = 0x0,200x0,200x200,0x200

; bed_temperature = 0

; before_layer_gcode = 

; between_objects_gcode = 

; bridge_acceleration = 0

; bridge_fan_speed = 100

; brim_connections_width = 0

; brim_width = 0

; complete_objects = 0

; cooling = 1

; default_acceleration = 0

; disable_fan_first_layers = 3

; duplicate_distance = 6

; end_filament_gcode = "; Filament-specific end gcode \n;END gcode for filament\n"

; end_gcode = M104 S0 ; turn off temperature\nG28 X0  ; home X axis\nM84     ; disable motors\n

; extruder_clearance_height = 20

; extruder_clearance_radius = 20

; extruder_offset = 0x0

; extrusion_axis = E

; extrusion_multiplier = 1

; fan_always_on = 0

; fan_below_layer_time = 60

; filament_colour = #FFFFFF

; filament_cost = 0

; filament_density = 0

; filament_diameter = 3

; filament_max_volumetric_speed = 0

; filament_notes = ""

; first_layer_acceleration = 0

; first_layer_bed_temperature = 0

; first_layer_extrusion_width = 200%

; first_layer_speed = 30

; first_layer_temperature = 200

; gcode_arcs = 0

; gcode_comments = 0

; gcode_flavor = reprap

; has_heatbed = 1

; infill_acceleration = 0

; infill_first = 0

; interior_brim_width = 0

; layer_gcode = 

; max_fan_speed = 100

; max_layer_height = 0.3

; max_print_speed = 80

; max_volumetric_speed = 0

; min_fan_speed = 35

; min_layer_height = 0.15

; min_print_speed = 10

; min_skirt_length = 0

; notes = 

; nozzle_diameter = 0.5

; only_retract_when_crossing_perimeters = 1

; ooze_prevention = 0

; output_filename_format = [input_filename_base].gcode

; perimeter_acceleration = 0

; post_process = 

; pressure_advance = 0

; printer_notes = 

; resolution = 0

; retract_before_travel = 2

; retract_layer_change = 0

; retract_length = 2

; retract_length_toolchange = 10

; retract_lift = 0

; retract_lift_above = 0

; retract_lift_below = 0

; retract_restart_extra = 0

; retract_restart_extra_toolchange = 0

; retract_speed = 40

; skirt_distance = 6

; skirt_height = 1

; skirts = 1

; slowdown_below_layer_time = 5

; spiral_vase = 0

; standby_temperature_delta = -5

; start_filament_gcode = "; Filament gcode\n"

G0 X151.006 Y8.739 Z151.268 A7.671 B-26.519 C0.0 E0.02444 F2400.0
; temperature = 200

; threads = 8

; toolchange_gcode = 

; travel_speed = 130

; use_firmware_retraction = 0

; use_relative_e_distances = 0

; use_set_and_wait_bed = 0

; use_set_and_wait_extruder = 0

; use_volumetric_e = 0

; vibration_limit = 0

; wipe = 0

; z_offset = 0

; z_steps_per_mm = 0

; adaptive_slicing = 0

; adaptive_slicing_quality = 75%

; dont_support_bridges = 1

; extrusion_width = 0

; first_layer_height = 0.35

; infill_only_where_needed = 0

; interface_shells = 0

; layer_height = 0.3

; match_horizontal_surfaces = 0

; raft_layers = 0

; regions_overlap = 0

; seam_position = aligned

; sequential_print_priority = 0

; support_material = 0

; support_material_angle = 0

; support_material_buildplate_only = 0

; support_material_contact_distance = 0.2

; support_material_enforce_layers = 0

; support_material_extruder = 1

; support_material_extrusion_width = 0

; support_material_interface_extruder = 1

; support_material_interface_extrusion_width = 0

; support_material_interface_layers = 3

; support_material_interface_spacing = 0

; support_material_interface_speed = 100%

; support_material_max_layers = 0

; support_material_pattern = pillars

; support_material_spacing = 2.5

; support_material_speed = 60

; support_material_threshold = 60%

; xy_size_compensation = 0

; bottom_infill_pattern = rectilinear

; bottom_solid_layers = 3

; bridge_flow_ratio = 1

; bridge_speed = 60

; external_perimeter_extrusion_width = 0

; external_perimeter_speed = 50%

; external_perimeters_first = 0

; extra_perimeters = 1

; fill_angle = 45

; fill_density = 20%

; fill_gaps = 1

; fill_pattern = stars

; gap_fill_speed = 20

; infill_every_layers = 1

; infill_extruder = 1

; infill_extrusion_width = 0

; infill_overlap = 55%

; infill_speed = 80

; overhangs = 1

; perimeter_extruder = 1

; perimeter_extrusion_width = 0

; perimeter_speed = 60

; perimeters = 3

; small_perimeter_speed = 15

; solid_infill_below_area = 70

; solid_infill_every_layers = 0

; solid_infill_extruder = 1

; solid_infill_extrusion_width = 0

; solid_infill_speed = 20

; thin_walls = 1

; top_infill_extrusion_width = 0

; top_infill_pattern = rectilinear

; top_solid_infill_speed = 15

; top_solid_layers = 3

